X: 18
T: Whaland's Fancy
%R: reel
B: "Twenty Four Country Dances for the Year 1799", Thomas Skillern, ed. p.9 #2
F: http://www.vwml.org/browse/browse-collections-dance-tune-books/browse-skillerns1799
Z: 2014 John Chambers <jc:trillian.mit.edu>
N: The rhythms at strain boundaries don't all match, mostly due to the initial pickup notes.
M: 2/4
L: 1/16
K: G
dc |\
BdcB AcBA | GBAG {G}F2ED |\
EFGE FGAF | GABc B2Ac |\
BdcB AcBA | GBAG {G}F2ED |
EFGE FGAF | GBAF G4 :|\
|:\
!p!B2B2B2A2 | c2c2c2B2 |\
e2e2d2g2 | fgaf g4 |\
B2B2B2A2 | c2c2c2B2 |
e2e2d2g2 | fgaf g4 :|\
|:\
!f!b2B2B2b2 | a2g2 {g}f4 |\
g2G2G2g2 | f2e2 {e}^d2 |\
e2E2E2e2 | d2c2 {c}B4 |\
cBAG FGAF | G6 :|
%%begintext align
%% First Cu: lead thro' the 2d Cu: cast off below the 3d
%% Cu: and turn, lead up thro' the 3rd Cu: cast up to
%% the top and turn, Down middle up again, Allemande,
%% Hands 4 at bottom, Right and left at top.
%%endtext

%%sep 1 1 500
%%sep 1 1 500
